packages/ffe-icons/icons/open/400/lg/sports_score.svg

<svg xmlns="http://www.w3.org/2000/svg" height="40" viewBox="0 -960 960 960" width="40"><path d="M380.001-733.334h66.666V-800h-66.666v66.666Zm133.332 0V-800h66.666v66.666h-66.666ZM380.001-466.669v-66.666h66.666v66.666h-66.666Zm266.665-133.332v-66.666h66.666v66.666h-66.666Zm0 133.332v-66.666h66.666v66.666h-66.666Zm-133.333 0v-66.666h66.666v66.666h-66.666Zm133.333-266.665V-800h66.666v66.666h-66.666Zm-199.999 66.667v-66.667h66.666v66.667h-66.666ZM279.884-160q-14.216 0-23.716-9.583-9.5-9.584-9.5-23.75v-573.334q0-14.166 9.617-23.75Q265.902-800 280.118-800q14.216 0 23.781 9.583 9.565 9.584 9.565 23.75v33.333h66.537v66.667h-66.667v66.666h66.667v66.666h-66.667v340.002q0 14.166-9.617 23.75Q294.101-160 279.884-160Zm300.115-373.335v-66.666h66.667v66.666h-66.667Zm-133.332 0v-66.666h66.666v66.666h-66.666Zm-66.666-66.666v-66.666h66.666v66.666h-66.666Zm133.332 0v-66.666h66.666v66.666h-66.666Zm66.666-66.666v-66.667h66.667v66.667h-66.667Z"/></svg>

<svg xmlns="http://www.w3.org/2000/svg" viewBox="0 -960 960 960" width="32" height="32"><path d="M380-733.33h66.67V-800H380v66.67Zm133.33 0V-800H580v66.67h-66.67ZM380-466.67v-66.66h66.67v66.66H380ZM646.67-600v-66.67h66.66V-600h-66.66Zm0 133.33v-66.66h66.66v66.66h-66.66Zm-133.34 0v-66.66H580v66.66h-66.67Zm133.34-266.66V-800h66.66v66.67h-66.66Zm-200 66.66v-66.66h66.66v66.66h-66.66ZM279.88-160q-14.21 0-23.71-9.58-9.5-9.59-9.5-23.75v-573.34q0-14.16 9.61-23.75 9.62-9.58 23.84-9.58 14.21 0 23.78 9.58 9.56 9.59 9.56 23.75v33.34H380v66.66h-66.67V-600H380v66.67h-66.67v340q0 14.16-9.61 23.75-9.62 9.58-23.84 9.58ZM580-533.33V-600h66.67v66.67H580Zm-133.33 0V-600h66.66v66.67h-66.66ZM380-600v-66.67h66.67V-600H380Zm133.33 0v-66.67H580V-600h-66.67ZM580-666.67v-66.66h66.67v66.66H580Z"/></svg>
